images/logo/logo.svg

<svg width="141" height="33" viewBox="0 0 141 33" fill="none" xmlns="http://www.w3.org/2000/svg">
<path d="M0 6.73727V32.6084H3.71392V13.8746H3.95394L11.5839 32.5705H14.6662L22.2962 13.8872H22.5362V32.6084H26.2501V6.73727H21.513L13.2766 26.848H12.9735L4.73714 6.73727H0Z" fill="white"/>
<path d="M39.9847 33C44.2165 33 47.2104 30.9157 48.0694 27.7576L44.4944 27.1133C43.8123 28.945 42.1701 29.8798 40.0226 29.8798C36.7887 29.8798 34.6159 27.7828 34.5148 24.0436H48.3094V22.7046C48.3094 15.6936 44.1154 12.9524 39.7194 12.9524C34.3127 12.9524 30.7504 17.0706 30.7504 23.033C30.7504 29.0587 34.2622 33 39.9847 33ZM34.5275 21.214C34.6791 18.4601 36.675 16.0726 39.7446 16.0726C42.6754 16.0726 44.5955 18.2454 44.6081 21.214H34.5275Z" fill="white"/>
<path d="M67.0401 17.9422C66.2569 14.9231 63.8946 12.9524 59.7006 12.9524C55.3172 12.9524 52.2096 15.2641 52.2096 18.7001C52.2096 21.454 53.8771 23.2857 57.5152 24.0942L60.7997 24.8142C62.6693 25.2311 63.5409 26.0648 63.5409 27.2775C63.5409 28.7808 61.9366 29.9556 59.4606 29.9556C57.1994 29.9556 55.7467 28.9829 55.2919 27.0754L51.6412 27.6312C52.2728 31.0672 55.1277 33 59.4859 33C64.1725 33 67.419 30.5114 67.419 26.9996C67.419 24.2584 65.6758 22.5656 62.1134 21.7445L59.0311 21.0371C56.8963 20.5318 55.9741 19.8118 55.9867 18.498C55.9741 17.0074 57.591 15.9463 59.7385 15.9463C62.0882 15.9463 63.1746 17.2474 63.6167 18.5486L67.0401 17.9422Z" fill="white"/>
<path d="M80.6293 13.2051H76.6502V8.55633H72.8731V13.2051H70.0308V16.2368H72.8731V27.6944C72.8604 31.2188 75.5511 32.9242 78.5324 32.861C79.7325 32.8484 80.5409 32.621 80.9831 32.4568L80.3009 29.3366C80.0483 29.3871 79.5809 29.5008 78.9745 29.5008C77.7492 29.5008 76.6502 29.0966 76.6502 26.9112V16.2368H80.6293V13.2051Z" fill="white"/>
<path d="M92.7722 33C98.2421 33 101.817 28.9955 101.817 22.9951C101.817 16.9569 98.2421 12.9524 92.7722 12.9524C87.3024 12.9524 83.7274 16.9569 83.7274 22.9951C83.7274 28.9955 87.3024 33 92.7722 33ZM92.7849 29.8293C89.2099 29.8293 87.5424 26.7091 87.5424 22.9825C87.5424 19.2686 89.2099 16.1105 92.7849 16.1105C96.3346 16.1105 98.002 19.2686 98.002 22.9825C98.002 26.7091 96.3346 29.8293 92.7849 29.8293Z" fill="white"/>
<path d="M105.909 8.8932H106.953V5.52456H108.839C108.915 5.52456 108.987 5.52456 109.058 5.52035L110.877 8.8932H112.09L110.14 5.33087C111.239 4.95611 111.753 4.05921 111.753 2.91387C111.753 1.38956 110.844 0.269491 108.822 0.269491H105.909V8.8932ZM106.953 4.58135V1.19587H108.789C110.187 1.19587 110.726 1.87801 110.726 2.91387C110.726 3.94973 110.187 4.58135 108.806 4.58135H106.953Z" fill="white"/>
<path d="M117.435 6.24882C117.435 7.46153 116.508 8.01735 115.767 8.01735C114.942 8.01735 114.352 7.411 114.352 6.46778V2.42542H113.358V6.53515C113.358 8.18579 114.234 8.97742 115.447 8.97742C116.424 8.97742 117.064 8.45528 117.367 7.79839H117.435V8.8932H118.428V2.42542H117.435V6.24882Z" fill="white"/>
<path d="M124.83 3.87393C124.518 2.95598 123.819 2.3412 122.539 2.3412C121.175 2.3412 120.164 3.11599 120.164 4.21079C120.164 5.10348 120.695 5.70142 121.882 5.97933L122.96 6.23198C123.613 6.38357 123.92 6.69516 123.92 7.14151C123.92 7.69733 123.331 8.1521 122.404 8.1521C121.592 8.1521 121.082 7.8026 120.905 7.10782L119.962 7.34363C120.194 8.44264 121.099 9.02795 122.421 9.02795C123.924 9.02795 124.948 8.20684 124.948 7.09098C124.948 6.18987 124.383 5.62141 123.23 5.33929L122.27 5.10348C121.503 4.914 121.158 4.65714 121.158 4.16027C121.158 3.60444 121.747 3.2002 122.539 3.2002C123.406 3.2002 123.764 3.68023 123.937 4.12658L124.83 3.87393Z" fill="white"/>
<path d="M131.025 3.87393C130.713 2.95598 130.014 2.3412 128.734 2.3412C127.37 2.3412 126.359 3.11599 126.359 4.21079C126.359 5.10348 126.89 5.70142 128.077 5.97933L129.155 6.23198C129.808 6.38357 130.115 6.69516 130.115 7.14151C130.115 7.69733 129.526 8.1521 128.599 8.1521C127.787 8.1521 127.277 7.8026 127.1 7.10782L126.157 7.34363C126.389 8.44264 127.294 9.02795 128.616 9.02795C130.12 9.02795 131.143 8.20684 131.143 7.09098C131.143 6.18987 130.579 5.62141 129.425 5.33929L128.465 5.10348C127.698 4.914 127.353 4.65714 127.353 4.16027C127.353 3.60444 127.943 3.2002 128.734 3.2002C129.602 3.2002 129.96 3.68023 130.132 4.12658L131.025 3.87393Z" fill="white"/>
<path d="M132.639 8.8932H133.632V2.42542H132.639V8.8932ZM133.144 1.34745C133.531 1.34745 133.851 1.04428 133.851 0.673727C133.851 0.303177 133.531 0 133.144 0C132.757 0 132.437 0.303177 132.437 0.673727C132.437 1.04428 132.757 1.34745 133.144 1.34745Z" fill="white"/>
<path d="M137.356 9.04479C138.484 9.04479 139.074 8.43843 139.276 8.01735H139.326V8.8932H140.32V4.63187C140.32 2.57701 138.754 2.3412 137.928 2.3412C136.952 2.3412 135.84 2.67807 135.335 3.85709L136.278 4.19395C136.497 3.72234 137.015 3.21705 137.962 3.21705C138.876 3.21705 139.326 3.70129 139.326 4.53082V4.5645C139.326 5.04453 138.838 5.00242 137.659 5.15401C136.459 5.30981 135.149 5.57509 135.149 7.05729C135.149 8.32053 136.126 9.04479 137.356 9.04479ZM137.507 8.1521C136.716 8.1521 136.143 7.79839 136.143 7.10782C136.143 6.34988 136.834 6.11407 137.608 6.01302C138.029 5.96249 139.158 5.84458 139.326 5.64247V6.552C139.326 7.36047 138.686 8.1521 137.507 8.1521Z" fill="white"/>
</svg>

<svg xmlns="http://www.w3.org/2000/svg" width="141" height="33" fill="none" viewBox="0 0 141 33"><path fill="#fff" d="M0 6.737v25.871h3.714V13.875h.24l7.63 18.696h3.082l7.63-18.684h.24v18.721h3.714V6.738h-4.737l-8.236 20.11h-.303L4.736 6.738zM39.985 33c4.232 0 7.225-2.084 8.084-5.242l-3.575-.645c-.682 1.832-2.324 2.767-4.471 2.767-3.234 0-5.407-2.097-5.508-5.836h13.794v-1.34c0-7.01-4.194-9.752-8.59-9.752-5.406 0-8.969 4.119-8.969 10.081 0 6.026 3.512 9.967 9.235 9.967m-5.457-11.786c.151-2.754 2.147-5.141 5.217-5.141 2.93 0 4.85 2.172 4.863 5.141zM67.04 17.942c-.783-3.019-3.145-4.99-7.34-4.99-4.383 0-7.49 2.312-7.49 5.748 0 2.754 1.667 4.586 5.305 5.394l3.285.72c1.87.417 2.74 1.25 2.74 2.464 0 1.503-1.603 2.678-4.08 2.678-2.26 0-3.713-.973-4.168-2.88l-3.65.555c.63 3.436 3.486 5.369 7.844 5.369 4.687 0 7.933-2.489 7.933-6 0-2.742-1.743-4.434-5.306-5.256l-3.082-.707c-2.135-.505-3.057-1.225-3.044-2.539-.013-1.49 1.604-2.552 3.752-2.552 2.35 0 3.436 1.301 3.878 2.603zM80.63 13.205h-3.98V8.556h-3.777v4.65h-2.842v3.03h2.842v11.458c-.013 3.525 2.678 5.23 5.66 5.167 1.2-.013 2.008-.24 2.45-.404l-.682-3.12c-.253.05-.72.164-1.326.164-1.226 0-2.325-.404-2.325-2.59V16.237h3.98zM92.772 33c5.47 0 9.045-4.004 9.045-10.005 0-6.038-3.575-10.043-9.045-10.043s-9.045 4.005-9.045 10.043c0 6 3.575 10.005 9.045 10.005m.013-3.17c-3.575 0-5.243-3.12-5.243-6.847 0-3.714 1.668-6.873 5.243-6.873 3.55 0 5.217 3.159 5.217 6.873 0 3.726-1.667 6.846-5.217 6.846M105.909 8.893h1.044V5.525h1.886q.113.001.219-.005l1.819 3.373h1.213l-1.95-3.562c1.099-.375 1.613-1.272 1.613-2.417 0-1.524-.909-2.645-2.931-2.645h-2.913zm1.044-4.312V1.196h1.836c1.398 0 1.937.682 1.937 1.718s-.539 1.667-1.92 1.667zM117.435 6.249c0 1.213-.927 1.768-1.668 1.768-.825 0-1.415-.606-1.415-1.55V2.426h-.994v4.11c0 1.65.876 2.442 2.089 2.442.977 0 1.617-.522 1.92-1.179h.068v1.095h.993V2.425h-.993zM124.83 3.874c-.312-.918-1.011-1.533-2.291-1.533-1.364 0-2.375.775-2.375 1.87 0 .892.531 1.49 1.718 1.768l1.078.253c.653.152.96.463.96.91 0 .555-.589 1.01-1.516 1.01-.812 0-1.322-.35-1.499-1.044l-.943.236c.232 1.099 1.137 1.684 2.459 1.684 1.503 0 2.527-.821 2.527-1.937 0-.901-.565-1.47-1.718-1.752l-.96-.236c-.767-.189-1.112-.446-1.112-.943 0-.556.589-.96 1.381-.96.867 0 1.225.48 1.398.927zM131.025 3.874c-.312-.918-1.011-1.533-2.291-1.533-1.364 0-2.375.775-2.375 1.87 0 .892.531 1.49 1.718 1.768l1.078.253c.653.152.96.463.96.91 0 .555-.589 1.01-1.516 1.01-.812 0-1.322-.35-1.499-1.044l-.943.236c.232 1.099 1.137 1.684 2.459 1.684 1.504 0 2.527-.821 2.527-1.937 0-.901-.564-1.47-1.718-1.752l-.96-.236c-.767-.189-1.112-.446-1.112-.943 0-.556.59-.96 1.381-.96.868 0 1.226.48 1.398.927zM132.639 8.893h.993V2.425h-.993zm.505-7.546c.387 0 .707-.303.707-.673s-.32-.674-.707-.674-.707.303-.707.674c0 .37.32.673.707.673M137.356 9.045c1.128 0 1.718-.607 1.92-1.028h.05v.876h.994V4.632c0-2.055-1.566-2.29-2.392-2.29-.976 0-2.088.336-2.593 1.515l.943.337c.219-.472.737-.977 1.684-.977.914 0 1.364.484 1.364 1.314v.034c0 .48-.488.437-1.667.589-1.2.156-2.51.421-2.51 1.903 0 1.264.977 1.988 2.207 1.988m.151-.893c-.791 0-1.364-.354-1.364-1.044 0-.758.691-.994 1.465-1.095.421-.05 1.55-.168 1.718-.37v.909c0 .808-.64 1.6-1.819 1.6"/></svg>
